**kern
*staff1
!!pagebreak:original
*I"P1
*clefG2
*k[]
*met(c|)
*M2/2
4ee\
=1
2.ff\
4a/
=2
4g#/
4e/
4e/
4g#/
=3
4a/
4e/
4e/
4a/
=4
4b\
4e/
4e/
4b\
=5
4cc\
4a/
4a/
4cc\
=6
4cc\
4a/
4a/
4cc\
=7
1dd
=8
1gg
=9
2.ee;\
=
*-
